X: 1674
T: the Sea Captain   #2
R: hornpipe, reel
%S: s:2 b:13(6+7)
B: O'Neill's 1850 #1674
O: F.O'Neill
M: 4/4
L: 1/8
K: D
(3(ABc) \
| d2(ec) ABce | dcAF DEFG | ABGA \
[1,3 FGAB | c2AA A2 :|\
[2,4 FDEC | D2DD D2 :: A2 | (3(ABc) de fefg |
| fdec dcAG | A2(AG) FGAB | c2AA A3g \
|| fdec d2(cA) | BGAF DEFG | ABGA FDEC | D2DD D2 :|
